X:1
T:My Savior Face to Face
T:My Savior Face to Face
T:William James Kirkpatrick
T:W. C. Agar, 1898
T:Public Domain Courtesy of the Cyber Hymnal™
T:Public Domain Courtesy of the Cyber Hymnal™
C:William James Kirkpatrick
Z:Public Domain
Z:Courtesy of the Cyber Hymnal™
%%score ( 1 2 ) ( 3 4 )
L:1/8
Q:1/4=87
M:4/4
K:D
V:1 treble 
V:2 treble 
V:3 bass 
V:4 bass 
V:1
 [DF][EG] | [FA][Fd][Fd][Fd] [Fd][Fd][FA][DF] | [DG][GB][GB][GB] [GB]2 [EG][DF] | %3
w: 1.~I am|glad I found the Sav- ior, For He|makes my heart re- joice, And I|
w: 2.~Yes, I|know He ev- er loves me, Dai- ly|guides my er- ring feet, And I’m|
w: 3.~When life’s|sun is slow- ly set- ting, Twi- light|sha- dows veil the sky, And I’m|
w: 4.~When I|tread the crys- tal pave- ment Of the|new Je- ru- sa- lem, Where my|
 [CE][CE][CE][DF] [EG][FA][Gc][GB] | ([FA]4 [DF]2) [DF][EG] | [FA][Fd][Fd][Fd] [Fd][Fd][FA][DF] | %6
w: feel with- in my soul His sav- ing|grace; * But I|want to talk with Je- sus, Hear His|
w: rest- ing in His ten- der, fond em-|brace; * But I|want to know Him bet- ter, And my|
w: near the end- ing of life’s wea- ry|race; * In my|heart will be this long- ing, None but|
w: Sav- ior has pre- pared for me a|place, * Where the|an- gel choirs are sing- ing Praise and|
 [DG][GB][GB][GB] [GB]3 [GB] | [FA][FA][Gc][FB] [EB][EA][CG][CE] | (z A,B,B, A,2) x5 || %9
w: lov- ing, gen- tle voice; I|want to see my Sav- ior face to||
w: dear Re- deem- er meet, I|want to see my Sav- ior face to||
w: Christ can sa- tis- fy, I|want to see my Sav- ior face to||
w: glo- ry to the Lamb, O|then I’ll see my Sav- ior face to||
"^Refrain" [DF][EG] | [FA][FA][FA][FA] [FA][Fd][FA][EG] | [FA]6 [FA][FA] | %12
w: * face.|||
w: * face.|O I want to see my Sav- ior|face to face,|
w: * face.|||
w: * face.|||
 [GB][GB][GB][GB] [GB][Ge][Ge][Gd] | [Gc]6 [GA][GA] | [Fd][Fd][Fd][Fd] [Fd][Fd][FA][DF] | %15
w: |||
w: Who hath loved me and re- deemed me|by His grace;|In His king- dom, crowned with glo- ry|
w: |||
w: |||
 [DG][GB][GB][GB] [GB]3 [GB] | [FA][FA][Gc][FB] [EB][EA][CG][CE] | (z A,B,B, A,2) x3 |] %18
w: |||
w: On His ev- er- last- ing|throne, I want to see my Sav- ior||
w: |||
w: |||
V:2
 x2 | x8 | x8 | x8 | x8 | x8 | x8 | x8 | D6 x5 || x2 | x8 | x8 | x8 | x8 | x8 | x8 | x8 | D6 x3 |] %18
V:3
 [D,A,][D,A,] | [D,D][D,A,][D,A,][D,A,] [D,A,][D,A,][D,=C][D,C] | %2
 [G,,B,][G,,D][G,,D][G,,D] [G,,D]2 [A,,A,][A,,A,] | %3
 [A,,A,][A,,A,][A,,A,][A,,A,] [A,,A,][A,,A,][A,,A,][A,,C] | (z [D,A,]2) [D,A,] [D,A,] x3 | %5
 [D,D][D,A,][D,A,][D,A,] [D,A,][D,A,][D,=C][D,C] | [G,,B,][G,,D][G,,D][G,,D] [G,,D]3 [G,,D] | %7
 [A,,D][A,,D][A,,E][A,,D] [A,,C][A,,C][A,,A,][A,,G,] | z x10 || [D,A,][D,A,] | %10
 [D,D][D,D][D,D][D,D] [D,D][D,A,][D,A,][D,A,] | ([D,D][D,D][F,D][A,D] [D,D]2) [D,D][D,D] | %12
 [G,D][G,D][G,D][G,D] [G,D][G,B,][G,B,][G,E] | ([A,E][A,E][A,E][A,E] [A,E]2) [A,C][A,C] | %14
 [D,D][D,A,][D,A,][D,A,] [D,A,][D,A,][D,=C][D,C] | [G,,B,][G,,D][G,,D][G,,D] [G,,D]3 [G,,D] | %16
 [A,,D][A,,D][A,,E][A,,D] [A,,C][A,,C][A,,A,][A,,G,] | (z F,2) x6 |] %18
V:4
 x2 | x8 | x8 | x8 | [D,D]4 D,F,A, x | x8 | x8 | x8 | D,6 F,G,G, F,2 || x2 | x8 | x8 | x8 | x8 | %14
 x8 | x8 | x8 | D,6 F,G,G, |] %18

